(1001)
(T2  D=1. CR=0.5 - ZMIN=-2. - BALL END MILL)
G90 G94 G91.1 G40 G49 G17
G21
(WHEN USING FUSION 360 FOR PERSONAL USE, THE FEEDRATE OF )
(RAPID MOVES IS REDUCED TO MATCH THE FEEDRATE OF CUTTING )
(MOVES, WHICH CAN INCREASE MACHINING TIME. UNRESTRICTED )
(RAPID MOVES ARE AVAILABLE WITH A FUSION 360 SUBSCRIPTION. )

(2D CONTOUR1)
M5
T2 M6
S5000 M3
G54
M8
G0 X6.395 Y-5.383
G43 Z15. H2
G1 Z5. F1000.
Z1.7 F333.
Z-0.6
X6.403 Z-0.638 F1000.
X6.425 Z-0.671
X6.457 Z-0.692
X6.495 Z-0.7
X6.595
X6.634 Y-5.376
X6.666 Y-5.354
X6.688 Y-5.321
X6.695 Y-5.283
Y-1.988
X-5.658
Y-8.578
X6.695
Y-5.283
X6.688 Y-5.245
X6.666 Y-5.212
X6.634 Y-5.191
X6.595 Y-5.183
X6.495
X6.457 Z-0.692
X6.425 Z-0.671
X6.403 Z-0.638
X6.395 Z-0.6
Z5.
Y-5.383
Z1.389 F333.
Z-1.3
X6.403 Z-1.338 F1000.
X6.425 Z-1.371
X6.457 Z-1.392
X6.495 Z-1.4
X6.595
X6.634 Y-5.376
X6.666 Y-5.354
X6.688 Y-5.321
X6.695 Y-5.283
Y-1.988
X-5.658
Y-8.578
X6.695
Y-5.283
X6.688 Y-5.245
X6.666 Y-5.212
X6.634 Y-5.191
X6.595 Y-5.183
X6.495
X6.457 Z-1.392
X6.425 Z-1.371
X6.403 Z-1.338
X6.395 Z-1.3
Z5.
Y-5.383
Z0.689 F333.
Z-1.9
X6.403 Z-1.938 F1000.
X6.425 Z-1.971
X6.457 Z-1.992
X6.495 Z-2.
X6.595
X6.634 Y-5.376
X6.666 Y-5.354
X6.688 Y-5.321
X6.695 Y-5.283
Y-1.988
X-5.658
Y-8.578
X6.695
Y-5.283
X6.688 Y-5.245
X6.666 Y-5.212
X6.634 Y-5.191
X6.595 Y-5.183
X6.495
X6.457 Z-1.992
X6.425 Z-1.971
X6.403 Z-1.938
X6.395 Z-1.9
Z5.
X-13.523 Y-10.997
Z1.7 F333.
Z-0.6
X-13.519 Y-10.991 Z-0.638 F1000.
X-13.507 Y-10.973 Z-0.671
X-13.489 Y-10.946 Z-0.692
X-13.467 Y-10.914 Z-0.7
X-13.411 Y-10.832
X-13.396 Y-10.796
Y-10.757
X-13.411 Y-10.72
X-13.438 Y-10.693
X-13.459 Y-10.678
X-13.514 Y-10.658
X-13.57 Y-10.65
X-13.625 Y-10.655
X-13.676 Y-10.671
X-13.719 Y-10.698
X-13.754 Y-10.733
X-13.78 Y-10.775
X-13.795 Y-10.822
X-13.799 Y-10.873
X-13.791 Y-10.925
X-13.771 Y-10.975
X-13.738 Y-11.022
X-13.695 Y-11.06
X-13.644 Y-11.088
X-13.588 Y-11.104
X-13.532 Y-11.107
X-13.479 Y-11.097
X-13.431 Y-11.076
X-13.39 Y-11.046
X-13.356 Y-11.004
X-13.334 Y-10.954
X-13.326 Y-10.905
X-13.329 Y-10.853
X-13.344 Y-10.801
X-13.372 Y-10.753
X-13.411 Y-10.711
X-13.438 Y-10.693
X-13.474 Y-10.678
X-13.513 Y-10.677
X-13.549 Y-10.692
X-13.577 Y-10.72
X-13.633 Y-10.802
X-13.654 Y-10.834 Z-0.692
X-13.673 Y-10.861 Z-0.671
X-13.685 Y-10.879 Z-0.638
X-13.689 Y-10.885 Z-0.6
Z5.
X-13.523 Y-10.997
Z1.389 F333.
Z-1.3
X-13.519 Y-10.991 Z-1.338 F1000.
X-13.507 Y-10.973 Z-1.371
X-13.489 Y-10.946 Z-1.392
X-13.467 Y-10.914 Z-1.4
X-13.411 Y-10.832
X-13.396 Y-10.796
Y-10.757
X-13.411 Y-10.72
X-13.438 Y-10.693
X-13.459 Y-10.678
X-13.514 Y-10.658
X-13.57 Y-10.65
X-13.625 Y-10.655
X-13.676 Y-10.671
X-13.719 Y-10.698
X-13.754 Y-10.733
X-13.78 Y-10.775
X-13.795 Y-10.822
X-13.799 Y-10.873
X-13.791 Y-10.925
X-13.771 Y-10.975
X-13.738 Y-11.022
X-13.695 Y-11.06
X-13.644 Y-11.088
X-13.588 Y-11.104
X-13.532 Y-11.107
X-13.479 Y-11.097
X-13.431 Y-11.076
X-13.39 Y-11.046
X-13.356 Y-11.004
X-13.334 Y-10.954
X-13.326 Y-10.905
X-13.329 Y-10.853
X-13.344 Y-10.801
X-13.372 Y-10.753
X-13.411 Y-10.711
X-13.438 Y-10.693
X-13.474 Y-10.678
X-13.513 Y-10.677
X-13.549 Y-10.692
X-13.577 Y-10.72
X-13.633 Y-10.802
X-13.654 Y-10.834 Z-1.392
X-13.673 Y-10.861 Z-1.371
X-13.685 Y-10.879 Z-1.338
X-13.689 Y-10.885 Z-1.3
Z5.
X-13.523 Y-10.997
Z0.689 F333.
Z-1.9
X-13.519 Y-10.991 Z-1.938 F1000.
X-13.507 Y-10.973 Z-1.971
X-13.489 Y-10.946 Z-1.992
X-13.467 Y-10.914 Z-2.
X-13.411 Y-10.832
X-13.396 Y-10.796
Y-10.757
X-13.411 Y-10.72
X-13.438 Y-10.693
X-13.459 Y-10.678
X-13.514 Y-10.658
X-13.57 Y-10.65
X-13.625 Y-10.655
X-13.676 Y-10.671
X-13.719 Y-10.698
X-13.754 Y-10.733
X-13.78 Y-10.775
X-13.795 Y-10.822
X-13.799 Y-10.873
X-13.791 Y-10.925
X-13.771 Y-10.975
X-13.738 Y-11.022
X-13.695 Y-11.06
X-13.644 Y-11.088
X-13.588 Y-11.104
X-13.532 Y-11.107
X-13.479 Y-11.097
X-13.431 Y-11.076
X-13.39 Y-11.046
X-13.356 Y-11.004
X-13.334 Y-10.954
X-13.326 Y-10.905
X-13.329 Y-10.853
X-13.344 Y-10.801
X-13.372 Y-10.753
X-13.411 Y-10.711
X-13.438 Y-10.693
X-13.474 Y-10.678
X-13.513 Y-10.677
X-13.549 Y-10.692
X-13.577 Y-10.72
X-13.633 Y-10.802
X-13.654 Y-10.834 Z-1.992
X-13.673 Y-10.861 Z-1.971
X-13.685 Y-10.879 Z-1.938
X-13.689 Y-10.885 Z-1.9
Z5.
X-14.854 Y-13.145
Z1.7 F333.
Z-0.6
X-14.846 Y-13.146 Z-0.638 F1000.
X-14.824 Y-13.147 Z-0.671
X-14.792 Y-13.15 Z-0.692
X-14.754 Y-13.152 Z-0.7
X-14.654 Y-13.159
X-14.615 Y-13.154
X-14.581 Y-13.135
X-14.558 Y-13.104
X-14.547 Y-13.067
X-14.545 Y-13.041
X-14.555 Y-12.984
X-14.576 Y-12.931
X-14.608 Y-12.886
X-14.648 Y-12.851
X-14.692 Y-12.826
X-14.74 Y-12.814
X-14.789 Y-12.812
X-14.838 Y-12.823
X-14.884 Y-12.844
X-14.925 Y-12.877
X-14.958 Y-12.92
X-14.982 Y-12.971
X-14.994 Y-13.028
X-14.993 Y-13.086
X-14.979 Y-13.143
X-14.953 Y-13.193
X-14.918 Y-13.234
X-14.876 Y-13.265
X-14.829 Y-13.285
X-14.775 Y-13.294
X-14.721 Y-13.288
X-14.674 Y-13.27
X-14.631 Y-13.242
X-14.594 Y-13.203
X-14.566 Y-13.154
X-14.55 Y-13.099
X-14.547 Y-13.067
X-14.552 Y-13.028
X-14.572 Y-12.994
X-14.602 Y-12.97
X-14.64 Y-12.96
X-14.74 Y-12.953
X-14.778 Y-12.95 Z-0.692
X-14.81 Y-12.948 Z-0.671
X-14.832 Y-12.946 Z-0.638
X-14.839 Z-0.6
Z5.
X-14.854 Y-13.145
Z1.389 F333.
Z-1.3
X-14.846 Y-13.146 Z-1.338 F1000.
X-14.824 Y-13.147 Z-1.371
X-14.792 Y-13.15 Z-1.392
X-14.754 Y-13.152 Z-1.4
X-14.654 Y-13.159
X-14.615 Y-13.154
X-14.581 Y-13.135
X-14.558 Y-13.104
X-14.547 Y-13.067
X-14.545 Y-13.041
X-14.555 Y-12.984
X-14.576 Y-12.931
X-14.608 Y-12.886
X-14.648 Y-12.851
X-14.692 Y-12.826
X-14.74 Y-12.814
X-14.789 Y-12.812
X-14.838 Y-12.823
X-14.884 Y-12.844
X-14.925 Y-12.877
X-14.958 Y-12.92
X-14.982 Y-12.971
X-14.994 Y-13.028
X-14.993 Y-13.086
X-14.979 Y-13.143
X-14.953 Y-13.193
X-14.918 Y-13.234
X-14.876 Y-13.265
X-14.829 Y-13.285
X-14.775 Y-13.294
X-14.721 Y-13.288
X-14.674 Y-13.27
X-14.631 Y-13.242
X-14.594 Y-13.203
X-14.566 Y-13.154
X-14.55 Y-13.099
X-14.547 Y-13.067
X-14.552 Y-13.028
X-14.572 Y-12.994
X-14.602 Y-12.97
X-14.64 Y-12.96
X-14.74 Y-12.953
X-14.778 Y-12.95 Z-1.392
X-14.81 Y-12.948 Z-1.371
X-14.832 Y-12.946 Z-1.338
X-14.839 Z-1.3
Z5.
X-14.854 Y-13.145
Z0.689 F333.
Z-1.9
X-14.846 Y-13.146 Z-1.938 F1000.
X-14.824 Y-13.147 Z-1.971
X-14.792 Y-13.15 Z-1.992
X-14.754 Y-13.152 Z-2.
X-14.654 Y-13.159
X-14.615 Y-13.154
X-14.581 Y-13.135
X-14.558 Y-13.104
X-14.547 Y-13.067
X-14.545 Y-13.041
X-14.555 Y-12.984
X-14.576 Y-12.931
X-14.608 Y-12.886
X-14.648 Y-12.851
X-14.692 Y-12.826
X-14.74 Y-12.814
X-14.789 Y-12.812
X-14.838 Y-12.823
X-14.884 Y-12.844
X-14.925 Y-12.877
X-14.958 Y-12.92
X-14.982 Y-12.971
X-14.994 Y-13.028
X-14.993 Y-13.086
X-14.979 Y-13.143
X-14.953 Y-13.193
X-14.918 Y-13.234
X-14.876 Y-13.265
X-14.829 Y-13.285
X-14.775 Y-13.294
X-14.721 Y-13.288
X-14.674 Y-13.27
X-14.631 Y-13.242
X-14.594 Y-13.203
X-14.566 Y-13.154
X-14.55 Y-13.099
X-14.547 Y-13.067
X-14.552 Y-13.028
X-14.572 Y-12.994
X-14.602 Y-12.97
X-14.64 Y-12.96
X-14.74 Y-12.953
X-14.778 Y-12.95 Z-1.992
X-14.81 Y-12.948 Z-1.971
X-14.832 Y-12.946 Z-1.938
X-14.839 Z-1.9
Z5.
X-16.08 Y-10.997
Z1.7 F333.
Z-0.6
X-16.076 Y-10.991 Z-0.638 F1000.
X-16.063 Y-10.973 Z-0.671
X-16.045 Y-10.946 Z-0.692
X-16.024 Y-10.914 Z-0.7
X-15.968 Y-10.831
X-15.953 Y-10.796
Y-10.757
X-15.967 Y-10.72
X-15.995 Y-10.693
X-16.016 Y-10.678
X-16.07 Y-10.658
X-16.127 Y-10.65
X-16.182 Y-10.655
X-16.232 Y-10.671
X-16.276 Y-10.698
X-16.311 Y-10.733
X-16.336 Y-10.775
X-16.352 Y-10.822
X-16.356 Y-10.873
X-16.348 Y-10.925
X-16.327 Y-10.975
X-16.295 Y-11.022
X-16.252 Y-11.06
X-16.201 Y-11.088
X-16.145 Y-11.104
X-16.089 Y-11.107
X-16.035 Y-11.097
X-15.987 Y-11.076
X-15.947 Y-11.046
X-15.912 Y-11.004
X-15.891 Y-10.954
X-15.882 Y-10.905
X-15.885 Y-10.853
X-15.901 Y-10.801
X-15.928 Y-10.753
X-15.968 Y-10.711
X-15.995 Y-10.693
X-16.031 Y-10.678
X-16.07 Y-10.677
X-16.106 Y-10.692
X-16.134 Y-10.72
X-16.19 Y-10.802
X-16.211 Y-10.834 Z-0.692
X-16.229 Y-10.861 Z-0.671
X-16.241 Y-10.879 Z-0.638
X-16.246 Y-10.885 Z-0.6
Z5.
X-16.08 Y-10.997
Z1.389 F333.
Z-1.3
X-16.076 Y-10.991 Z-1.338 F1000.
X-16.063 Y-10.973 Z-1.371
X-16.045 Y-10.946 Z-1.392
X-16.024 Y-10.914 Z-1.4
X-15.968 Y-10.831
X-15.953 Y-10.796
Y-10.757
X-15.967 Y-10.72
X-15.995 Y-10.693
X-16.016 Y-10.678
X-16.07 Y-10.658
X-16.127 Y-10.65
X-16.182 Y-10.655
X-16.232 Y-10.671
X-16.276 Y-10.698
X-16.311 Y-10.733
X-16.336 Y-10.775
X-16.352 Y-10.822
X-16.356 Y-10.873
X-16.348 Y-10.925
X-16.327 Y-10.975
X-16.295 Y-11.022
X-16.252 Y-11.06
X-16.201 Y-11.088
X-16.145 Y-11.104
X-16.089 Y-11.107
X-16.035 Y-11.097
X-15.987 Y-11.076
X-15.947 Y-11.046
X-15.912 Y-11.004
X-15.891 Y-10.954
X-15.882 Y-10.905
X-15.885 Y-10.853
X-15.901 Y-10.801
X-15.928 Y-10.753
X-15.968 Y-10.711
X-15.995 Y-10.693
X-16.031 Y-10.678
X-16.07 Y-10.677
X-16.106 Y-10.692
X-16.134 Y-10.72
X-16.19 Y-10.802
X-16.211 Y-10.834 Z-1.392
X-16.229 Y-10.861 Z-1.371
X-16.241 Y-10.879 Z-1.338
X-16.246 Y-10.885 Z-1.3
Z5.
X-16.08 Y-10.997
Z0.689 F333.
Z-1.9
X-16.076 Y-10.991 Z-1.938 F1000.
X-16.063 Y-10.973 Z-1.971
X-16.045 Y-10.946 Z-1.992
X-16.024 Y-10.914 Z-2.
X-15.968 Y-10.831
X-15.953 Y-10.796
Y-10.757
X-15.967 Y-10.72
X-15.995 Y-10.693
X-16.016 Y-10.678
X-16.07 Y-10.658
X-16.127 Y-10.65
X-16.182 Y-10.655
X-16.232 Y-10.671
X-16.276 Y-10.698
X-16.311 Y-10.733
X-16.336 Y-10.775
X-16.352 Y-10.822
X-16.356 Y-10.873
X-16.348 Y-10.925
X-16.327 Y-10.975
X-16.295 Y-11.022
X-16.252 Y-11.06
X-16.201 Y-11.088
X-16.145 Y-11.104
X-16.089 Y-11.107
X-16.035 Y-11.097
X-15.987 Y-11.076
X-15.947 Y-11.046
X-15.912 Y-11.004
X-15.891 Y-10.954
X-15.882 Y-10.905
X-15.885 Y-10.853
X-15.901 Y-10.801
X-15.928 Y-10.753
X-15.968 Y-10.711
X-15.995 Y-10.693
X-16.031 Y-10.678
X-16.07 Y-10.677
X-16.106 Y-10.692
X-16.134 Y-10.72
X-16.19 Y-10.802
X-16.211 Y-10.834 Z-1.992
X-16.229 Y-10.861 Z-1.971
X-16.241 Y-10.879 Z-1.938
X-16.246 Y-10.885 Z-1.9
Z5.
X-18.802 Y-10.946
Z1.7 F333.
Z-0.6
X-18.798 Y-10.953 Z-0.638 F1000.
X-18.787 Y-10.971 Z-0.671
X-18.77 Y-10.999 Z-0.692
X-18.75 Y-11.032 Z-0.7
X-18.699 Y-11.117
X-18.672 Y-11.146
X-18.637 Y-11.163
X-18.598 Y-11.165
X-18.561 Y-11.151
X-18.535 Y-11.135
X-18.493 Y-11.095
X-18.463 Y-11.048
X-18.444 Y-10.997
X-18.439 Y-10.944
X-18.445 Y-10.894
X-18.464 Y-10.843
X-18.496 Y-10.8
X-18.535 Y-10.768
X-18.581 Y-10.744
X-18.633 Y-10.732
X-18.689
X-18.745 Y-10.745
X-18.798 Y-10.77
X-18.843 Y-10.807
X-18.878 Y-10.852
X-18.901 Y-10.902
X-18.912 Y-10.954
X-18.91 Y-11.005
X-18.897 Y-11.053
X-18.874 Y-11.096
X-18.841 Y-11.133
X-18.799 Y-11.162
X-18.75 Y-11.181
X-18.696 Y-11.188
X-18.64 Y-11.183
X-18.585 Y-11.165
X-18.561 Y-11.151
X-18.533 Y-11.125
X-18.516 Y-11.09
X-18.514 Y-11.051
X-18.527 Y-11.014
X-18.579 Y-10.929
X-18.599 Y-10.896 Z-0.692
X-18.615 Y-10.868 Z-0.671
X-18.627 Y-10.849 Z-0.638
X-18.631 Y-10.843 Z-0.6
Z5.
X-18.802 Y-10.946
Z1.389 F333.
Z-1.3
X-18.798 Y-10.953 Z-1.338 F1000.
X-18.787 Y-10.971 Z-1.371
X-18.77 Y-10.999 Z-1.392
X-18.75 Y-11.032 Z-1.4
X-18.699 Y-11.117
X-18.672 Y-11.146
X-18.637 Y-11.163
X-18.598 Y-11.165
X-18.561 Y-11.151
X-18.535 Y-11.135
X-18.493 Y-11.095
X-18.463 Y-11.048
X-18.444 Y-10.997
X-18.439 Y-10.944
X-18.445 Y-10.894
X-18.464 Y-10.843
X-18.496 Y-10.8
X-18.535 Y-10.768
X-18.581 Y-10.744
X-18.633 Y-10.732
X-18.689
X-18.745 Y-10.745
X-18.798 Y-10.77
X-18.843 Y-10.807
X-18.878 Y-10.852
X-18.901 Y-10.902
X-18.912 Y-10.954
X-18.91 Y-11.005
X-18.897 Y-11.053
X-18.874 Y-11.096
X-18.841 Y-11.133
X-18.799 Y-11.162
X-18.75 Y-11.181
X-18.696 Y-11.188
X-18.64 Y-11.183
X-18.585 Y-11.165
X-18.561 Y-11.151
X-18.533 Y-11.125
X-18.516 Y-11.09
X-18.514 Y-11.051
X-18.527 Y-11.014
X-18.579 Y-10.929
X-18.599 Y-10.896 Z-1.392
X-18.615 Y-10.868 Z-1.371
X-18.627 Y-10.849 Z-1.338
X-18.631 Y-10.843 Z-1.3
Z5.
X-18.802 Y-10.946
Z0.689 F333.
Z-1.9
X-18.798 Y-10.953 Z-1.938 F1000.
X-18.787 Y-10.971 Z-1.971
X-18.77 Y-10.999 Z-1.992
X-18.75 Y-11.032 Z-2.
X-18.699 Y-11.117
X-18.672 Y-11.146
X-18.637 Y-11.163
X-18.598 Y-11.165
X-18.561 Y-11.151
X-18.535 Y-11.135
X-18.493 Y-11.095
X-18.463 Y-11.048
X-18.444 Y-10.997
X-18.439 Y-10.944
X-18.445 Y-10.894
X-18.464 Y-10.843
X-18.496 Y-10.8
X-18.535 Y-10.768
X-18.581 Y-10.744
X-18.633 Y-10.732
X-18.689
X-18.745 Y-10.745
X-18.798 Y-10.77
X-18.843 Y-10.807
X-18.878 Y-10.852
X-18.901 Y-10.902
X-18.912 Y-10.954
X-18.91 Y-11.005
X-18.897 Y-11.053
X-18.874 Y-11.096
X-18.841 Y-11.133
X-18.799 Y-11.162
X-18.75 Y-11.181
X-18.696 Y-11.188
X-18.64 Y-11.183
X-18.585 Y-11.165
X-18.561 Y-11.151
X-18.533 Y-11.125
X-18.516 Y-11.09
X-18.514 Y-11.051
X-18.527 Y-11.014
X-18.579 Y-10.929
X-18.599 Y-10.896 Z-1.992
X-18.615 Y-10.868 Z-1.971
X-18.627 Y-10.849 Z-1.938
X-18.631 Y-10.843 Z-1.9
Z5.
X-17.412 Y-8.701
Z1.7 F333.
Z-0.6
X-17.404 Y-8.702 Z-0.638 F1000.
X-17.383 Y-8.703 Z-0.671
X-17.35 Y-8.706 Z-0.692
X-17.312 Y-8.708 Z-0.7
X-17.212 Y-8.715
X-17.174 Y-8.71
X-17.14 Y-8.691
X-17.116 Y-8.66
X-17.106 Y-8.622
X-17.104 Y-8.597
X-17.113 Y-8.54
X-17.134 Y-8.487
X-17.166 Y-8.442
X-17.206 Y-8.406
X-17.251 Y-8.382
X-17.299 Y-8.369
X-17.348 Y-8.368
X-17.396 Y-8.378
X-17.442 Y-8.4
X-17.483 Y-8.433
X-17.516 Y-8.476
X-17.54 Y-8.527
X-17.552 Y-8.584
X-17.551 Y-8.642
X-17.537 Y-8.698
X-17.511 Y-8.748
X-17.476 Y-8.79
X-17.434 Y-8.821
X-17.388 Y-8.841
X-17.334 Y-8.85
X-17.28 Y-8.843
X-17.233 Y-8.826
X-17.189 Y-8.798
X-17.153 Y-8.758
X-17.125 Y-8.71
X-17.108 Y-8.655
X-17.106 Y-8.622
X-17.11 Y-8.584
X-17.13 Y-8.55
X-17.161 Y-8.526
X-17.198 Y-8.516
X-17.298 Y-8.509
X-17.336 Y-8.506 Z-0.692
X-17.369 Y-8.504 Z-0.671
X-17.39 Y-8.502 Z-0.638
X-17.398 Z-0.6
Z5.
X-17.412 Y-8.701
Z1.389 F333.
Z-1.3
X-17.404 Y-8.702 Z-1.338 F1000.
X-17.383 Y-8.703 Z-1.371
X-17.35 Y-8.706 Z-1.392
X-17.312 Y-8.708 Z-1.4
X-17.212 Y-8.715
X-17.174 Y-8.71
X-17.14 Y-8.691
X-17.116 Y-8.66
X-17.106 Y-8.622
X-17.104 Y-8.597
X-17.113 Y-8.54
X-17.134 Y-8.487
X-17.166 Y-8.442
X-17.206 Y-8.406
X-17.251 Y-8.382
X-17.299 Y-8.369
X-17.348 Y-8.368
X-17.396 Y-8.378
X-17.442 Y-8.4
X-17.483 Y-8.433
X-17.516 Y-8.476
X-17.54 Y-8.527
X-17.552 Y-8.584
X-17.551 Y-8.642
X-17.537 Y-8.698
X-17.511 Y-8.748
X-17.476 Y-8.79
X-17.434 Y-8.821
X-17.388 Y-8.841
X-17.334 Y-8.85
X-17.28 Y-8.843
X-17.233 Y-8.826
X-17.189 Y-8.798
X-17.153 Y-8.758
X-17.125 Y-8.71
X-17.108 Y-8.655
X-17.106 Y-8.622
X-17.11 Y-8.584
X-17.13 Y-8.55
X-17.161 Y-8.526
X-17.198 Y-8.516
X-17.298 Y-8.509
X-17.336 Y-8.506 Z-1.392
X-17.369 Y-8.504 Z-1.371
X-17.39 Y-8.502 Z-1.338
X-17.398 Z-1.3
Z5.
X-17.412 Y-8.701
Z0.689 F333.
Z-1.9
X-17.404 Y-8.702 Z-1.938 F1000.
X-17.383 Y-8.703 Z-1.971
X-17.35 Y-8.706 Z-1.992
X-17.312 Y-8.708 Z-2.
X-17.212 Y-8.715
X-17.174 Y-8.71
X-17.14 Y-8.691
X-17.116 Y-8.66
X-17.106 Y-8.622
X-17.104 Y-8.597
X-17.113 Y-8.54
X-17.134 Y-8.487
X-17.166 Y-8.442
X-17.206 Y-8.406
X-17.251 Y-8.382
X-17.299 Y-8.369
X-17.348 Y-8.368
X-17.396 Y-8.378
X-17.442 Y-8.4
X-17.483 Y-8.433
X-17.516 Y-8.476
X-17.54 Y-8.527
X-17.552 Y-8.584
X-17.551 Y-8.642
X-17.537 Y-8.698
X-17.511 Y-8.748
X-17.476 Y-8.79
X-17.434 Y-8.821
X-17.388 Y-8.841
X-17.334 Y-8.85
X-17.28 Y-8.843
X-17.233 Y-8.826
X-17.189 Y-8.798
X-17.153 Y-8.758
X-17.125 Y-8.71
X-17.108 Y-8.655
X-17.106 Y-8.622
X-17.11 Y-8.584
X-17.13 Y-8.55
X-17.161 Y-8.526
X-17.198 Y-8.516
X-17.298 Y-8.509
X-17.336 Y-8.506 Z-1.992
X-17.369 Y-8.504 Z-1.971
X-17.39 Y-8.502 Z-1.938
X-17.398 Z-1.9
Z5.
X-21.358 Y-10.946
Z1.7 F333.
Z-0.6
X-21.355 Y-10.953 Z-0.638 F1000.
X-21.343 Y-10.971 Z-0.671
X-21.327 Y-10.999 Z-0.692
X-21.307 Y-11.032 Z-0.7
X-21.255 Y-11.117
X-21.229 Y-11.146
X-21.194 Y-11.163
X-21.155 Y-11.165
X-21.118 Y-11.151
X-21.091 Y-11.135
X-21.05 Y-11.095
X-21.019 Y-11.048
X-21.001 Y-10.997
X-20.995 Y-10.944
X-21.001 Y-10.894
X-21.02 Y-10.843
X-21.053 Y-10.8
X-21.091 Y-10.768
X-21.138 Y-10.744
X-21.19 Y-10.732
X-21.246
X-21.302 Y-10.745
X-21.354 Y-10.77
X-21.399 Y-10.807
X-21.434 Y-10.852
X-21.458 Y-10.902
X-21.468 Y-10.954
X-21.467 Y-11.005
X-21.454 Y-11.053
X-21.43 Y-11.096
X-21.397 Y-11.133
X-21.356 Y-11.162
X-21.307 Y-11.181
X-21.253 Y-11.188
X-21.196 Y-11.183
X-21.141 Y-11.165
X-21.118 Y-11.151
X-21.089 Y-11.125
X-21.072 Y-11.09
X-21.071 Y-11.051
X-21.084 Y-11.014
X-21.136 Y-10.928
X-21.155 Y-10.896 Z-0.692
X-21.172 Y-10.868 Z-0.671
X-21.183 Y-10.849 Z-0.638
X-21.187 Y-10.843 Z-0.6
Z5.
X-21.358 Y-10.946
Z1.389 F333.
Z-1.3
X-21.355 Y-10.953 Z-1.338 F1000.
X-21.343 Y-10.971 Z-1.371
X-21.327 Y-10.999 Z-1.392
X-21.307 Y-11.032 Z-1.4
X-21.255 Y-11.117
X-21.229 Y-11.146
X-21.194 Y-11.163
X-21.155 Y-11.165
X-21.118 Y-11.151
X-21.091 Y-11.135
X-21.05 Y-11.095
X-21.019 Y-11.048
X-21.001 Y-10.997
X-20.995 Y-10.944
X-21.001 Y-10.894
X-21.02 Y-10.843
X-21.053 Y-10.8
X-21.091 Y-10.768
X-21.138 Y-10.744
X-21.19 Y-10.732
X-21.246
X-21.302 Y-10.745
X-21.354 Y-10.77
X-21.399 Y-10.807
X-21.434 Y-10.852
X-21.458 Y-10.902
X-21.468 Y-10.954
X-21.467 Y-11.005
X-21.454 Y-11.053
X-21.43 Y-11.096
X-21.397 Y-11.133
X-21.356 Y-11.162
X-21.307 Y-11.181
X-21.253 Y-11.188
X-21.196 Y-11.183
X-21.141 Y-11.165
X-21.118 Y-11.151
X-21.089 Y-11.125
X-21.072 Y-11.09
X-21.071 Y-11.051
X-21.084 Y-11.014
X-21.136 Y-10.928
X-21.155 Y-10.896 Z-1.392
X-21.172 Y-10.868 Z-1.371
X-21.183 Y-10.849 Z-1.338
X-21.187 Y-10.843 Z-1.3
Z5.
X-21.358 Y-10.946
Z0.689 F333.
Z-1.9
X-21.355 Y-10.953 Z-1.938 F1000.
X-21.343 Y-10.971 Z-1.971
X-21.327 Y-10.999 Z-1.992
X-21.307 Y-11.032 Z-2.
X-21.255 Y-11.117
X-21.229 Y-11.146
X-21.194 Y-11.163
X-21.155 Y-11.165
X-21.118 Y-11.151
X-21.091 Y-11.135
X-21.05 Y-11.095
X-21.019 Y-11.048
X-21.001 Y-10.997
X-20.995 Y-10.944
X-21.001 Y-10.894
X-21.02 Y-10.843
X-21.053 Y-10.8
X-21.091 Y-10.768
X-21.138 Y-10.744
X-21.19 Y-10.732
X-21.246
X-21.302 Y-10.745
X-21.354 Y-10.77
X-21.399 Y-10.807
X-21.434 Y-10.852
X-21.458 Y-10.902
X-21.468 Y-10.954
X-21.467 Y-11.005
X-21.454 Y-11.053
X-21.43 Y-11.096
X-21.397 Y-11.133
X-21.356 Y-11.162
X-21.307 Y-11.181
X-21.253 Y-11.188
X-21.196 Y-11.183
X-21.141 Y-11.165
X-21.118 Y-11.151
X-21.089 Y-11.125
X-21.072 Y-11.09
X-21.071 Y-11.051
X-21.084 Y-11.014
X-21.136 Y-10.928
X-21.155 Y-10.896 Z-1.992
X-21.172 Y-10.868 Z-1.971
X-21.183 Y-10.849 Z-1.938
X-21.187 Y-10.843 Z-1.9
Z5.
X-19.959 Y-13.317
Z1.7 F333.
Z-0.6
X-19.951 Z-0.638 F1000.
X-19.929 Z-0.671
X-19.897 Y-13.316 Z-0.692
X-19.859 Y-13.315 Z-0.7
X-19.759 Y-13.313
X-19.721 Y-13.305
X-19.689 Y-13.283
X-19.667 Y-13.25
X-19.661 Y-13.211
Y-13.18
X-19.675 Y-13.124
X-19.701 Y-13.074
X-19.736 Y-13.033
X-19.778 Y-13.002
X-19.825 Y-12.982
X-19.879 Y-12.973
X-19.933 Y-12.979
X-19.98 Y-12.996
X-20.023 Y-13.025
X-20.06 Y-13.064
X-20.088 Y-13.112
X-20.105 Y-13.167
X-20.109 Y-13.225
X-20.1 Y-13.283
X-20.078 Y-13.336
X-20.046 Y-13.381
X-20.007 Y-13.416
X-19.962 Y-13.44
X-19.914 Y-13.453
X-19.865 Y-13.454
X-19.816 Y-13.444
X-19.771 Y-13.422
X-19.73 Y-13.39
X-19.696 Y-13.346
X-19.672 Y-13.295
X-19.66 Y-13.239
X-19.661 Y-13.211
X-19.669 Y-13.173
X-19.691 Y-13.141
X-19.724 Y-13.12
X-19.763 Y-13.113
X-19.862 Y-13.115
X-19.901 Y-13.116 Z-0.692
X-19.933 Y-13.117 Z-0.671
X-19.955 Z-0.638
X-19.962 Z-0.6
Z5.
X-19.959 Y-13.317
Z1.389 F333.
Z-1.3
X-19.951 Z-1.338 F1000.
X-19.929 Z-1.371
X-19.897 Y-13.316 Z-1.392
X-19.859 Y-13.315 Z-1.4
X-19.759 Y-13.313
X-19.721 Y-13.305
X-19.689 Y-13.283
X-19.667 Y-13.25
X-19.661 Y-13.211
Y-13.18
X-19.675 Y-13.124
X-19.701 Y-13.074
X-19.736 Y-13.033
X-19.778 Y-13.002
X-19.825 Y-12.982
X-19.879 Y-12.973
X-19.933 Y-12.979
X-19.98 Y-12.996
X-20.023 Y-13.025
X-20.06 Y-13.064
X-20.088 Y-13.112
X-20.105 Y-13.167
X-20.109 Y-13.225
X-20.1 Y-13.283
X-20.078 Y-13.336
X-20.046 Y-13.381
X-20.007 Y-13.416
X-19.962 Y-13.44
X-19.914 Y-13.453
X-19.865 Y-13.454
X-19.816 Y-13.444
X-19.771 Y-13.422
X-19.73 Y-13.39
X-19.696 Y-13.346
X-19.672 Y-13.295
X-19.66 Y-13.239
X-19.661 Y-13.211
X-19.669 Y-13.173
X-19.691 Y-13.141
X-19.724 Y-13.12
X-19.763 Y-13.113
X-19.862 Y-13.115
X-19.901 Y-13.116 Z-1.392
X-19.933 Y-13.117 Z-1.371
X-19.955 Z-1.338
X-19.962 Z-1.3
Z5.
X-19.959 Y-13.317
Z0.689 F333.
Z-1.9
X-19.951 Z-1.938 F1000.
X-19.929 Z-1.971
X-19.897 Y-13.316 Z-1.992
X-19.859 Y-13.315 Z-2.
X-19.759 Y-13.313
X-19.721 Y-13.305
X-19.689 Y-13.283
X-19.667 Y-13.25
X-19.661 Y-13.211
Y-13.18
X-19.675 Y-13.124
X-19.701 Y-13.074
X-19.736 Y-13.033
X-19.778 Y-13.002
X-19.825 Y-12.982
X-19.879 Y-12.973
X-19.933 Y-12.979
X-19.98 Y-12.996
X-20.023 Y-13.025
X-20.06 Y-13.064
X-20.088 Y-13.112
X-20.105 Y-13.167
X-20.109 Y-13.225
X-20.1 Y-13.283
X-20.078 Y-13.336
X-20.046 Y-13.381
X-20.007 Y-13.416
X-19.962 Y-13.44
X-19.914 Y-13.453
X-19.865 Y-13.454
X-19.816 Y-13.444
X-19.771 Y-13.422
X-19.73 Y-13.39
X-19.696 Y-13.346
X-19.672 Y-13.295
X-19.66 Y-13.239
X-19.661 Y-13.211
X-19.669 Y-13.173
X-19.691 Y-13.141
X-19.724 Y-13.12
X-19.763 Y-13.113
X-19.862 Y-13.115
X-19.901 Y-13.116 Z-1.992
X-19.933 Y-13.117 Z-1.971
X-19.955 Z-1.938
X-19.962 Z-1.9
Z5.
X-21.04 Y-15.504
Z1.7 F333.
Z-0.6
X-21.037 Y-15.498 Z-0.638 F1000.
X-21.026 Y-15.479 Z-0.671
X-21.01 Y-15.45 Z-0.692
X-20.992 Y-15.417 Z-0.7
X-20.944 Y-15.329
X-20.932 Y-15.292
X-20.935 Y-15.253
X-20.953 Y-15.218
X-20.983 Y-15.193
X-21.01 Y-15.178
X-21.066 Y-15.162
X-21.122 Y-15.16
X-21.176 Y-15.169
X-21.223 Y-15.19
X-21.264 Y-15.221
X-21.299 Y-15.263
X-21.32 Y-15.313
X-21.329 Y-15.362
X-21.325 Y-15.414
X-21.31 Y-15.465
X-21.282 Y-15.514
X-21.243 Y-15.556
X-21.195 Y-15.588
X-21.14 Y-15.609
X-21.084 Y-15.617
X-21.029 Y-15.612
X-20.979 Y-15.595
X-20.935 Y-15.568
X-20.9 Y-15.533
X-20.874 Y-15.491
X-20.859 Y-15.444
X-20.855 Y-15.394
X-20.863 Y-15.342
X-20.884 Y-15.291
X-20.916 Y-15.245
X-20.959 Y-15.206
X-20.983 Y-15.193
X-21.02 Y-15.181
X-21.059 Y-15.185
X-21.093 Y-15.203
X-21.119 Y-15.232
X-21.167 Y-15.32
X-21.186 Y-15.353 Z-0.692
X-21.201 Y-15.382 Z-0.671
X-21.212 Y-15.401 Z-0.638
X-21.215 Y-15.408 Z-0.6
Z5.
X-21.04 Y-15.504
Z1.389 F333.
Z-1.3
X-21.037 Y-15.498 Z-1.338 F1000.
X-21.026 Y-15.479 Z-1.371
X-21.01 Y-15.45 Z-1.392
X-20.992 Y-15.417 Z-1.4
X-20.944 Y-15.329
X-20.932 Y-15.292
X-20.935 Y-15.253
X-20.953 Y-15.218
X-20.983 Y-15.193
X-21.01 Y-15.178
X-21.066 Y-15.162
X-21.122 Y-15.16
X-21.176 Y-15.169
X-21.223 Y-15.19
X-21.264 Y-15.221
X-21.299 Y-15.263
X-21.32 Y-15.313
X-21.329 Y-15.362
X-21.325 Y-15.414
X-21.31 Y-15.465
X-21.282 Y-15.514
X-21.243 Y-15.556
X-21.195 Y-15.588
X-21.14 Y-15.609
X-21.084 Y-15.617
X-21.029 Y-15.612
X-20.979 Y-15.595
X-20.935 Y-15.568
X-20.9 Y-15.533
X-20.874 Y-15.491
X-20.859 Y-15.444
X-20.855 Y-15.394
X-20.863 Y-15.342
X-20.884 Y-15.291
X-20.916 Y-15.245
X-20.959 Y-15.206
X-20.983 Y-15.193
X-21.02 Y-15.181
X-21.059 Y-15.185
X-21.093 Y-15.203
X-21.119 Y-15.232
X-21.167 Y-15.32
X-21.186 Y-15.353 Z-1.392
X-21.201 Y-15.382 Z-1.371
X-21.212 Y-15.401 Z-1.338
X-21.215 Y-15.408 Z-1.3
Z5.
X-21.04 Y-15.504
Z0.689 F333.
Z-1.9
X-21.037 Y-15.498 Z-1.938 F1000.
X-21.026 Y-15.479 Z-1.971
X-21.01 Y-15.45 Z-1.992
X-20.992 Y-15.417 Z-2.
X-20.944 Y-15.329
X-20.932 Y-15.292
X-20.935 Y-15.253
X-20.953 Y-15.218
X-20.983 Y-15.193
X-21.01 Y-15.178
X-21.066 Y-15.162
X-21.122 Y-15.16
X-21.176 Y-15.169
X-21.223 Y-15.19
X-21.264 Y-15.221
X-21.299 Y-15.263
X-21.32 Y-15.313
X-21.329 Y-15.362
X-21.325 Y-15.414
X-21.31 Y-15.465
X-21.282 Y-15.514
X-21.243 Y-15.556
X-21.195 Y-15.588
X-21.14 Y-15.609
X-21.084 Y-15.617
X-21.029 Y-15.612
X-20.979 Y-15.595
X-20.935 Y-15.568
X-20.9 Y-15.533
X-20.874 Y-15.491
X-20.859 Y-15.444
X-20.855 Y-15.394
X-20.863 Y-15.342
X-20.884 Y-15.291
X-20.916 Y-15.245
X-20.959 Y-15.206
X-20.983 Y-15.193
X-21.02 Y-15.181
X-21.059 Y-15.185
X-21.093 Y-15.203
X-21.119 Y-15.232
X-21.167 Y-15.32
X-21.186 Y-15.353 Z-1.992
X-21.201 Y-15.382 Z-1.971
X-21.212 Y-15.401 Z-1.938
X-21.215 Y-15.408 Z-1.9
Z5.
X-18.484 Y-15.504
Z1.7 F333.
Z-0.6
X-18.48 Y-15.498 Z-0.638 F1000.
X-18.47 Y-15.479 Z-0.671
X-18.454 Y-15.45 Z-0.692
X-18.435 Y-15.417 Z-0.7
X-18.387 Y-15.329
X-18.375 Y-15.292
X-18.379 Y-15.253
X-18.396 Y-15.218
X-18.426 Y-15.193
X-18.454 Y-15.178
X-18.509 Y-15.162
X-18.565 Y-15.16
X-18.619 Y-15.169
X-18.667 Y-15.19
X-18.707 Y-15.221
X-18.742 Y-15.263
X-18.763 Y-15.313
X-18.772 Y-15.362
X-18.769 Y-15.414
X-18.753 Y-15.465
X-18.726 Y-15.514
X-18.686 Y-15.556
X-18.638 Y-15.588
X-18.584 Y-15.609
X-18.527 Y-15.617
X-18.472 Y-15.612
X-18.422 Y-15.595
X-18.378 Y-15.568
X-18.343 Y-15.533
X-18.318 Y-15.492
X-18.303 Y-15.444
X-18.299 Y-15.394
X-18.306 Y-15.342
X-18.327 Y-15.292
X-18.359 Y-15.245
X-18.403 Y-15.206
X-18.426 Y-15.193
X-18.463 Y-15.181
X-18.502 Y-15.185
X-18.537 Y-15.203
X-18.562 Y-15.232
X-18.611 Y-15.32
X-18.629 Y-15.353 Z-0.692
X-18.645 Y-15.382 Z-0.671
X-18.655 Y-15.401 Z-0.638
X-18.659 Y-15.407 Z-0.6
Z5.
X-18.484 Y-15.504
Z1.389 F333.
Z-1.3
X-18.48 Y-15.498 Z-1.338 F1000.
X-18.47 Y-15.479 Z-1.371
X-18.454 Y-15.45 Z-1.392
X-18.435 Y-15.417 Z-1.4
X-18.387 Y-15.329
X-18.375 Y-15.292
X-18.379 Y-15.253
X-18.396 Y-15.218
X-18.426 Y-15.193
X-18.454 Y-15.178
X-18.509 Y-15.162
X-18.565 Y-15.16
X-18.619 Y-15.169
X-18.667 Y-15.19
X-18.707 Y-15.221
X-18.742 Y-15.263
X-18.763 Y-15.313
X-18.772 Y-15.362
X-18.769 Y-15.414
X-18.753 Y-15.465
X-18.726 Y-15.514
X-18.686 Y-15.556
X-18.638 Y-15.588
X-18.584 Y-15.609
X-18.527 Y-15.617
X-18.472 Y-15.612
X-18.422 Y-15.595
X-18.378 Y-15.568
X-18.343 Y-15.533
X-18.318 Y-15.492
X-18.303 Y-15.444
X-18.299 Y-15.394
X-18.306 Y-15.342
X-18.327 Y-15.292
X-18.359 Y-15.245
X-18.403 Y-15.206
X-18.426 Y-15.193
X-18.463 Y-15.181
X-18.502 Y-15.185
X-18.537 Y-15.203
X-18.562 Y-15.232
X-18.611 Y-15.32
X-18.629 Y-15.353 Z-1.392
X-18.645 Y-15.382 Z-1.371
X-18.655 Y-15.401 Z-1.338
X-18.659 Y-15.407 Z-1.3
Z5.
X-18.484 Y-15.504
Z0.689 F333.
Z-1.9
X-18.48 Y-15.498 Z-1.938 F1000.
X-18.47 Y-15.479 Z-1.971
X-18.454 Y-15.45 Z-1.992
X-18.435 Y-15.417 Z-2.
X-18.387 Y-15.329
X-18.375 Y-15.292
X-18.379 Y-15.253
X-18.396 Y-15.218
X-18.426 Y-15.193
X-18.454 Y-15.178
X-18.509 Y-15.162
X-18.565 Y-15.16
X-18.619 Y-15.169
X-18.667 Y-15.19
X-18.707 Y-15.221
X-18.742 Y-15.263
X-18.763 Y-15.313
X-18.772 Y-15.362
X-18.769 Y-15.414
X-18.753 Y-15.465
X-18.726 Y-15.514
X-18.686 Y-15.556
X-18.638 Y-15.588
X-18.584 Y-15.609
X-18.527 Y-15.617
X-18.472 Y-15.612
X-18.422 Y-15.595
X-18.378 Y-15.568
X-18.343 Y-15.533
X-18.318 Y-15.492
X-18.303 Y-15.444
X-18.299 Y-15.394
X-18.306 Y-15.342
X-18.327 Y-15.292
X-18.359 Y-15.245
X-18.403 Y-15.206
X-18.426 Y-15.193
X-18.463 Y-15.181
X-18.502 Y-15.185
X-18.537 Y-15.203
X-18.562 Y-15.232
X-18.611 Y-15.32
X-18.629 Y-15.353 Z-1.992
X-18.645 Y-15.382 Z-1.971
X-18.655 Y-15.401 Z-1.938
X-18.659 Y-15.407 Z-1.9
Z5.
X-17.412 Y-13.216
Z1.7 F333.
Z-0.6
X-17.404 Y-13.217 Z-0.638 F1000.
X-17.383 Y-13.218 Z-0.671
X-17.35 Y-13.221 Z-0.692
X-17.312 Y-13.223 Z-0.7
X-17.212 Y-13.23
X-17.174 Y-13.225
X-17.14 Y-13.206
X-17.116 Y-13.175
X-17.105 Y-13.138
X-17.104 Y-13.112
X-17.113 Y-13.055
X-17.134 Y-13.002
X-17.166 Y-12.957
X-17.206 Y-12.922
X-17.251 Y-12.897
X-17.299 Y-12.885
X-17.348 Y-12.883
X-17.396 Y-12.894
X-17.442 Y-12.915
X-17.483 Y-12.948
X-17.516 Y-12.991
X-17.54 Y-13.043
X-17.552 Y-13.099
X-17.551 Y-13.158
X-17.537 Y-13.214
X-17.511 Y-13.264
X-17.476 Y-13.305
X-17.434 Y-13.336
X-17.387 Y-13.356
X-17.334 Y-13.365
X-17.28 Y-13.359
X-17.233 Y-13.341
X-17.19 Y-13.313
X-17.153 Y-13.274
X-17.125 Y-13.225
X-17.108 Y-13.17
X-17.105 Y-13.138
X-17.11 Y-13.099
X-17.13 Y-13.065
X-17.161 Y-13.041
X-17.198 Y-13.031
X-17.298 Y-13.024
X-17.336 Y-13.021 Z-0.692
X-17.368 Y-13.019 Z-0.671
X-17.39 Y-13.017 Z-0.638
X-17.398 Z-0.6
Z5.
X-17.412 Y-13.216
Z1.389 F333.
Z-1.3
X-17.404 Y-13.217 Z-1.338 F1000.
X-17.383 Y-13.218 Z-1.371
X-17.35 Y-13.221 Z-1.392
X-17.312 Y-13.223 Z-1.4
X-17.212 Y-13.23
X-17.174 Y-13.225
X-17.14 Y-13.206
X-17.116 Y-13.175
X-17.105 Y-13.138
X-17.104 Y-13.112
X-17.113 Y-13.055
X-17.134 Y-13.002
X-17.166 Y-12.957
X-17.206 Y-12.922
X-17.251 Y-12.897
X-17.299 Y-12.885
X-17.348 Y-12.883
X-17.396 Y-12.894
X-17.442 Y-12.915
X-17.483 Y-12.948
X-17.516 Y-12.991
X-17.54 Y-13.043
X-17.552 Y-13.099
X-17.551 Y-13.158
X-17.537 Y-13.214
X-17.511 Y-13.264
X-17.476 Y-13.305
X-17.434 Y-13.336
X-17.387 Y-13.356
X-17.334 Y-13.365
X-17.28 Y-13.359
X-17.233 Y-13.341
X-17.19 Y-13.313
X-17.153 Y-13.274
X-17.125 Y-13.225
X-17.108 Y-13.17
X-17.105 Y-13.138
X-17.11 Y-13.099
X-17.13 Y-13.065
X-17.161 Y-13.041
X-17.198 Y-13.031
X-17.298 Y-13.024
X-17.336 Y-13.021 Z-1.392
X-17.368 Y-13.019 Z-1.371
X-17.39 Y-13.017 Z-1.338
X-17.398 Z-1.3
Z5.
X-17.412 Y-13.216
Z0.689 F333.
Z-1.9
X-17.404 Y-13.217 Z-1.938 F1000.
X-17.383 Y-13.218 Z-1.971
X-17.35 Y-13.221 Z-1.992
X-17.312 Y-13.223 Z-2.
X-17.212 Y-13.23
X-17.174 Y-13.225
X-17.14 Y-13.206
X-17.116 Y-13.175
X-17.105 Y-13.138
X-17.104 Y-13.112
X-17.113 Y-13.055
X-17.134 Y-13.002
X-17.166 Y-12.957
X-17.206 Y-12.922
X-17.251 Y-12.897
X-17.299 Y-12.885
X-17.348 Y-12.883
X-17.396 Y-12.894
X-17.442 Y-12.915
X-17.483 Y-12.948
X-17.516 Y-12.991
X-17.54 Y-13.043
X-17.552 Y-13.099
X-17.551 Y-13.158
X-17.537 Y-13.214
X-17.511 Y-13.264
X-17.476 Y-13.305
X-17.434 Y-13.336
X-17.387 Y-13.356
X-17.334 Y-13.365
X-17.28 Y-13.359
X-17.233 Y-13.341
X-17.19 Y-13.313
X-17.153 Y-13.274
X-17.125 Y-13.225
X-17.108 Y-13.17
X-17.105 Y-13.138
X-17.11 Y-13.099
X-17.13 Y-13.065
X-17.161 Y-13.041
X-17.198 Y-13.031
X-17.298 Y-13.024
X-17.336 Y-13.021 Z-1.992
X-17.368 Y-13.019 Z-1.971
X-17.39 Y-13.017 Z-1.938
X-17.398 Z-1.9
Z5.
X-16.103 Y-15.31
Z1.7 F333.
Z-0.6
X-16.098 Y-15.316 Z-0.638 F1000.
X-16.085 Y-15.333 Z-0.671
X-16.064 Y-15.358 Z-0.692
X-16.04 Y-15.388 Z-0.7
X-15.977 Y-15.465
X-15.947 Y-15.49
X-15.91 Y-15.502
X-15.871 Y-15.498
X-15.837 Y-15.48
X-15.811 Y-15.46
X-15.776 Y-15.415
X-15.753 Y-15.365
X-15.742 Y-15.313
X-15.744 Y-15.261
X-15.757 Y-15.214
X-15.78 Y-15.17
X-15.813 Y-15.134
X-15.855 Y-15.105
X-15.904 Y-15.086
X-15.958 Y-15.078
X-16.014 Y-15.083
X-16.069 Y-15.101
X-16.119 Y-15.131
X-16.161 Y-15.172
X-16.191 Y-15.219
X-16.21 Y-15.27
X-16.215 Y-15.322
X-16.209 Y-15.372
X-16.19 Y-15.423
X-16.158 Y-15.467
X-16.12 Y-15.499
X-16.073 Y-15.522
X-16.021 Y-15.535
X-15.965
X-15.909 Y-15.522
X-15.856 Y-15.496
X-15.837 Y-15.48
X-15.812 Y-15.45
X-15.8 Y-15.413
X-15.804 Y-15.374
X-15.822 Y-15.339
X-15.885 Y-15.262
X-15.909 Y-15.232 Z-0.692
X-15.929 Y-15.207 Z-0.671
X-15.943 Y-15.19 Z-0.638
X-15.948 Y-15.184 Z-0.6
Z5.
X-16.103 Y-15.31
Z1.389 F333.
Z-1.3
X-16.098 Y-15.316 Z-1.338 F1000.
X-16.085 Y-15.333 Z-1.371
X-16.064 Y-15.358 Z-1.392
X-16.04 Y-15.388 Z-1.4
X-15.977 Y-15.465
X-15.947 Y-15.49
X-15.91 Y-15.502
X-15.871 Y-15.498
X-15.837 Y-15.48
X-15.811 Y-15.46
X-15.776 Y-15.415
X-15.753 Y-15.365
X-15.742 Y-15.313
X-15.744 Y-15.261
X-15.757 Y-15.214
X-15.78 Y-15.17
X-15.813 Y-15.134
X-15.855 Y-15.105
X-15.904 Y-15.086
X-15.958 Y-15.078
X-16.014 Y-15.083
X-16.069 Y-15.101
X-16.119 Y-15.131
X-16.161 Y-15.172
X-16.191 Y-15.219
X-16.21 Y-15.27
X-16.215 Y-15.322
X-16.209 Y-15.372
X-16.19 Y-15.423
X-16.158 Y-15.467
X-16.12 Y-15.499
X-16.073 Y-15.522
X-16.021 Y-15.535
X-15.965
X-15.909 Y-15.522
X-15.856 Y-15.496
X-15.837 Y-15.48
X-15.812 Y-15.45
X-15.8 Y-15.413
X-15.804 Y-15.374
X-15.822 Y-15.339
X-15.885 Y-15.262
X-15.909 Y-15.232 Z-1.392
X-15.929 Y-15.207 Z-1.371
X-15.943 Y-15.19 Z-1.338
X-15.948 Y-15.184 Z-1.3
Z5.
X-16.103 Y-15.31
Z0.689 F333.
Z-1.9
X-16.098 Y-15.316 Z-1.938 F1000.
X-16.085 Y-15.333 Z-1.971
X-16.064 Y-15.358 Z-1.992
X-16.04 Y-15.388 Z-2.
X-15.977 Y-15.465
X-15.947 Y-15.49
X-15.91 Y-15.502
X-15.871 Y-15.498
X-15.837 Y-15.48
X-15.811 Y-15.46
X-15.776 Y-15.415
X-15.753 Y-15.365
X-15.742 Y-15.313
X-15.744 Y-15.261
X-15.757 Y-15.214
X-15.78 Y-15.17
X-15.813 Y-15.134
X-15.855 Y-15.105
X-15.904 Y-15.086
X-15.958 Y-15.078
X-16.014 Y-15.083
X-16.069 Y-15.101
X-16.119 Y-15.131
X-16.161 Y-15.172
X-16.191 Y-15.219
X-16.21 Y-15.27
X-16.215 Y-15.322
X-16.209 Y-15.372
X-16.19 Y-15.423
X-16.158 Y-15.467
X-16.12 Y-15.499
X-16.073 Y-15.522
X-16.021 Y-15.535
X-15.965
X-15.909 Y-15.522
X-15.856 Y-15.496
X-15.837 Y-15.48
X-15.812 Y-15.45
X-15.8 Y-15.413
X-15.804 Y-15.374
X-15.822 Y-15.339
X-15.885 Y-15.262
X-15.909 Y-15.232 Z-1.992
X-15.929 Y-15.207 Z-1.971
X-15.943 Y-15.19 Z-1.938
X-15.948 Y-15.184 Z-1.9
Z5.
X-13.547 Y-15.31
Z1.7 F333.
Z-0.6
X-13.542 Y-15.316 Z-0.638 F1000.
X-13.528 Y-15.333 Z-0.671
X-13.508 Y-15.358 Z-0.692
X-13.484 Y-15.388 Z-0.7
X-13.421 Y-15.465
X-13.391 Y-15.49
X-13.354 Y-15.502
X-13.315 Y-15.498
X-13.28 Y-15.48
X-13.255 Y-15.46
X-13.22 Y-15.415
X-13.197 Y-15.365
X-13.186 Y-15.313
X-13.187 Y-15.262
X-13.2 Y-15.214
X-13.224 Y-15.17
X-13.257 Y-15.134
X-13.298 Y-15.105
X-13.347 Y-15.086
X-13.401 Y-15.078
X-13.458 Y-15.083
X-13.513 Y-15.101
X-13.563 Y-15.131
X-13.604 Y-15.172
X-13.635 Y-15.219
X-13.653 Y-15.27
X-13.659 Y-15.322
X-13.653 Y-15.372
X-13.634 Y-15.424
X-13.601 Y-15.467
X-13.563 Y-15.499
X-13.517 Y-15.522
X-13.464 Y-15.535
X-13.408
X-13.352 Y-15.522
X-13.3 Y-15.496
X-13.28 Y-15.48
X-13.255 Y-15.45
X-13.244 Y-15.413
X-13.247 Y-15.374
X-13.265 Y-15.34
X-13.328 Y-15.262
X-13.352 Y-15.232 Z-0.692
X-13.373 Y-15.207 Z-0.671
X-13.386 Y-15.19 Z-0.638
X-13.391 Y-15.184 Z-0.6
Z5.
X-13.547 Y-15.31
Z1.389 F333.
Z-1.3
X-13.542 Y-15.316 Z-1.338 F1000.
X-13.528 Y-15.333 Z-1.371
X-13.508 Y-15.358 Z-1.392
X-13.484 Y-15.388 Z-1.4
X-13.421 Y-15.465
X-13.391 Y-15.49
X-13.354 Y-15.502
X-13.315 Y-15.498
X-13.28 Y-15.48
X-13.255 Y-15.46
X-13.22 Y-15.415
X-13.197 Y-15.365
X-13.186 Y-15.313
X-13.187 Y-15.262
X-13.2 Y-15.214
X-13.224 Y-15.17
X-13.257 Y-15.134
X-13.298 Y-15.105
X-13.347 Y-15.086
X-13.401 Y-15.078
X-13.458 Y-15.083
X-13.513 Y-15.101
X-13.563 Y-15.131
X-13.604 Y-15.172
X-13.635 Y-15.219
X-13.653 Y-15.27
X-13.659 Y-15.322
X-13.653 Y-15.372
X-13.634 Y-15.424
X-13.601 Y-15.467
X-13.563 Y-15.499
X-13.517 Y-15.522
X-13.464 Y-15.535
X-13.408
X-13.352 Y-15.522
X-13.3 Y-15.496
X-13.28 Y-15.48
X-13.255 Y-15.45
X-13.244 Y-15.413
X-13.247 Y-15.374
X-13.265 Y-15.34
X-13.328 Y-15.262
X-13.352 Y-15.232 Z-1.392
X-13.373 Y-15.207 Z-1.371
X-13.386 Y-15.19 Z-1.338
X-13.391 Y-15.184 Z-1.3
Z5.
X-13.547 Y-15.31
Z0.689 F333.
Z-1.9
X-13.542 Y-15.316 Z-1.938 F1000.
X-13.528 Y-15.333 Z-1.971
X-13.508 Y-15.358 Z-1.992
X-13.484 Y-15.388 Z-2.
X-13.421 Y-15.465
X-13.391 Y-15.49
X-13.354 Y-15.502
X-13.315 Y-15.498
X-13.28 Y-15.48
X-13.255 Y-15.46
X-13.22 Y-15.415
X-13.197 Y-15.365
X-13.186 Y-15.313
X-13.187 Y-15.262
X-13.2 Y-15.214
X-13.224 Y-15.17
X-13.257 Y-15.134
X-13.298 Y-15.105
X-13.347 Y-15.086
X-13.401 Y-15.078
X-13.458 Y-15.083
X-13.513 Y-15.101
X-13.563 Y-15.131
X-13.604 Y-15.172
X-13.635 Y-15.219
X-13.653 Y-15.27
X-13.659 Y-15.322
X-13.653 Y-15.372
X-13.634 Y-15.424
X-13.601 Y-15.467
X-13.563 Y-15.499
X-13.517 Y-15.522
X-13.464 Y-15.535
X-13.408
X-13.352 Y-15.522
X-13.3 Y-15.496
X-13.28 Y-15.48
X-13.255 Y-15.45
X-13.244 Y-15.413
X-13.247 Y-15.374
X-13.265 Y-15.34
X-13.328 Y-15.262
X-13.352 Y-15.232 Z-1.992
X-13.373 Y-15.207 Z-1.971
X-13.386 Y-15.19 Z-1.938
X-13.391 Y-15.184 Z-1.9
Z15.

M9
M30
